shared/images/iconfont/62-kb-iconfont-nav-devices-24.svg

<?xml version="1.0" encoding="UTF-8"?>
<svg width="24px" height="24px" viewBox="0 0 24 24" version="1.1" xmlns="http://www.w3.org/2000/svg" xmlns:xlink="http://www.w3.org/1999/xlink">
    <!-- Generator: sketchtool 54.1 (76490) - https://sketchapp.com -->
    <title>06BBA9EE-A62C-4B67-AF6F-943A8A0553A0</title>
    <desc>Created with sketchtool.</desc>
    <g id="Symbols" stroke="none" stroke-width="1" fill="none" fill-rule="evenodd">
        <g id="62-kb-iconfont-nav-devices-24">
            <g>
                <rect id="icon-area" opacity="0" x="0" y="0" width="24" height="24"></rect>
                <path d="M12.00134,17 L12.00134,8 C12.00134,6.34314575 13.3444858,5 15.00134,5 L22.00134,5 L22.00134,4 C22.00134,2.8954305 21.1059095,2 20.00134,2 L4.00134,2 C2.8967705,2 2.00134,2.8954305 2.00134,4 L2.00134,15 C2.00134,16.1045695 2.8967705,17 4.00134,17 L12.00134,17 Z M12.00134,17 L0.00134000437,17 L1.99512384e-07,17.9999998 C-0.000493176422,19.1045692 0.894537274,20.0003996 1.99910666,20.0008929 C1.99940444,20.0008931 1.99970222,20.0008931 2,20.0008931 L12.00134,20 L12.00134,17 Z M22.1831582,7 C23.1861041,7.00320197 23.9984291,7.89675952 24.00134,9 L24.00134,21 C24.0001125,22.3086124 23.1861041,22.996798 22.1831582,23 L15.8195218,23 C14.8165759,22.996798 14.0042509,22.1032405 14.00134,21 L14.00134,9 C14.0042509,7.89675952 14.8165759,7.00320197 15.8195218,7 L22.1831582,7 Z M19,21 C19.8284271,21 20.5,20.3284271 20.5,19.5 C20.5,18.6715729 19.8284271,18 19,18 C18.1715729,18 17.5,18.6715729 17.5,19.5 C17.5,20.3284271 18.1715729,21 19,21 Z" id="devices" fill="#000000"></path>
            </g>
        </g>
    </g>
</svg>

<svg xmlns="http://www.w3.org/2000/svg" width="24" height="24" viewBox="0 0 24 24">
    <path fill="#000" fill-rule="nonzero" d="M12.001 17V8a3 3 0 0 1 3-3h7V4a2 2 0 0 0-2-2h-16a2 2 0 0 0-2 2v11a2 2 0 0 0 2 2h8zm0 0h-12L0 18a2 2 0 0 0 2 2h10.001v-3zM22.183 7c1.003.003 1.815.897 1.818 2v12c0 1.309-.815 1.997-1.818 2H15.82c-1.003-.003-1.816-.897-1.819-2V9c.003-1.103.816-1.997 1.819-2h6.363zM19 21a1.5 1.5 0 1 0 0-3 1.5 1.5 0 0 0 0 3z"/>
</svg>
